svgs/sharp-light/people-robbery.svg

<svg xmlns="http://www.w3.org/2000/svg" viewBox="0 0 576 512"><!--! Font Awesome Pro 6.4.0 by @fontawesome - https://fontawesome.com License - https://fontawesome.com/license (Commercial License) Copyright 2023 Fonticons, Inc. --><path d="M80 80a24 24 0 1 0 0-48 24 24 0 1 0 0 48zM80 0a56 56 0 1 1 0 112A56 56 0 1 1 80 0zM283.8 176l-3.3-11.7-40-144 30.8-8.6L308.2 144l27.8 0h32 64 32l27.8 0L528.6 11.7l30.8 8.6-40 144L516.2 176H504 464V496v16H432V496 352H368V496v16H336V496 176H296 283.8zM432 176H368V320h64V176zM32 144h80 8l4.8 6.4L192 240h48 16v32H240 184h-8l-4.8-6.4L104 176H48l0 144h64V288 272h32v16V496v16H112V496 352H48l0 144 0 16-32 0 0-16 0-336 0-16H32zM424 56a24 24 0 1 0 -48 0 24 24 0 1 0 48 0zm-80 0a56 56 0 1 1 112 0A56 56 0 1 1 344 56z"/></svg>

<svg xmlns="http://www.w3.org/2000/svg" viewBox="0 0 576 512"><!--! Font Awesome Pro 6.6.0 by @fontawesome - https://fontawesome.com License - https://fontawesome.com/license (Commercial License) Copyright 2024 Fonticons, Inc. --><path d="M80 80a24 24 0 1 0 0-48 24 24 0 1 0 0 48zM80 0a56 56 0 1 1 0 112A56 56 0 1 1 80 0zM283.8 176l-3.3-11.7-40-144 30.8-8.6L308.2 144l27.8 0 32 0 64 0 32 0 27.8 0L528.6 11.7l30.8 8.6-40 144L516.2 176 504 176l-40 0 0 320 0 16-32 0 0-16 0-144-64 0 0 144 0 16-32 0 0-16 0-320-40 0-12.2 0zM432 176l-64 0 0 144 64 0 0-144zM32 144l80 0 8 0 4.8 6.4L192 240l48 0 16 0 0 32-16 0-56 0-8 0-4.8-6.4L104 176l-56 0 0 144 64 0 0-32 0-16 32 0 0 16 0 208 0 16-32 0 0-16 0-144-64 0 0 144 0 16-32 0 0-16 0-336 0-16 16 0zM424 56a24 24 0 1 0 -48 0 24 24 0 1 0 48 0zm-80 0a56 56 0 1 1 112 0A56 56 0 1 1 344 56z"/></svg>
